source/sprite/big-mattress.svg

<svg xmlns="http://www.w3.org/2000/svg" viewBox="0 0 194.311 194.311">
  <path d="M193.24 114.298L171.658 75.05h.207V38.736c0-7.426-6.04-13.467-13.467-13.467H35.913c-7.426 0-13.467 6.04-13.467 13.465V75.05h.207L1.07 114.3h192.17zM49.743 62.058c0-4.354 3.543-7.897 7.897-7.897h77.615c5.135 0 9.313 4.18 9.313 9.315v1.68c0 5.134-4.178 9.312-9.313 9.312h-76.2c-5.135 0-9.312-4.177-9.312-9.312V62.06zm-17.96 12.994h13.09c3.134 4.474 8.317 7.412 14.182 7.412h76.2c5.865 0 11.05-2.938 14.182-7.412h13.09L179.71 106.3H14.6l17.183-31.25zm162.528 45.606v36.763c0 6.41-5.21 11.625-11.62 11.625H11.624C5.213 169.045 0 163.83 0 157.42v-36.763h194.31z"/>
</svg>

<?xml version="1.0" encoding="iso-8859-1"?>
<!-- Generator: Adobe Illustrator 17.1.0, SVG Export Plug-In . SVG Version: 6.00 Build 0)  -->
<!DOCTYPE svg PUBLIC "-//W3C//DTD SVG 1.1//EN" "http://www.w3.org/Graphics/SVG/1.1/DTD/svg11.dtd">
<svg version="1.1" id="Capa_1" xmlns="http://www.w3.org/2000/svg" xmlns:xlink="http://www.w3.org/1999/xlink" x="0px" y="0px"
	 viewBox="0 0 194.311 194.311" style="enable-background:new 0 0 194.311 194.311;" xml:space="preserve">
<path d="M193.24,114.298l-21.582-39.247h0.207V38.735c0-7.426-6.041-13.467-13.467-13.467H35.913
	c-7.426,0-13.467,6.041-13.467,13.467v36.316h0.207L1.07,114.298H193.24z M49.743,62.058c0-4.354,3.543-7.897,7.897-7.897h77.615
	c5.135,0,9.313,4.177,9.313,9.312v1.68c0,5.134-4.178,9.312-9.313,9.312H59.055c-5.135,0-9.312-4.177-9.312-9.312V62.058z
	 M31.783,75.052h13.091c3.133,4.474,8.316,7.412,14.181,7.412h76.201c5.864,0,11.048-2.938,14.181-7.412h13.091l17.183,31.247H14.6
	L31.783,75.052z M194.311,120.658v36.763c0,6.408-5.213,11.622-11.621,11.622H11.622C5.214,169.042,0,163.829,0,157.42v-36.763
	H194.311z"/>
<g>
</g>
<g>
</g>
<g>
</g>
<g>
</g>
<g>
</g>
<g>
</g>
<g>
</g>
<g>
</g>
<g>
</g>
<g>
</g>
<g>
</g>
<g>
</g>
<g>
</g>
<g>
</g>
<g>
</g>
</svg>
